build/img/features/icon-3.svg

<svg width="71" height="80" viewBox="0 0 71 80" fill="none" xmlns="http://www.w3.org/2000/svg">
<path fill-rule="evenodd" clip-rule="evenodd" d="M4.13286 29.509C4.3202 29.1606 5.1707 28.3993 5.50068 28.0659C6.01481 27.547 6.36289 27.3293 7.42734 27.2854C10.5707 27.1524 14.8945 29.004 17.3108 30.9253L18.7148 32.228C19.0672 32.5915 19.5887 33.3398 19.9006 33.8223C21.6932 36.5874 23.4506 39.3086 24.9781 42.2934C25.2591 42.8413 25.6284 43.6068 26.0329 43.9467C26.579 44.4056 27.4838 44.3981 28.0384 43.9735C28.478 43.6379 38.4849 33.4792 38.8788 33.0847C46.0798 25.8615 53.2745 18.4722 60.4947 11.3113C63.2835 8.54404 66.8484 11.6147 65.7477 14.4559C65.3741 15.4219 63.8711 16.7268 63.2388 17.3647L51.0646 29.628C50.6389 30.0558 50.0917 30.5415 49.7277 30.9983C48.5014 32.5368 50.5154 34.9245 52.3654 33.1522C54.3038 31.2952 57.8857 32.9485 57.4641 35.9388C57.1948 37.8451 55.0085 38.9194 54.5731 39.8832C54.4209 40.2188 54.3751 40.6327 54.489 41.0358C54.67 41.6737 55.1937 42.1905 55.9441 42.2677C56.9 42.3663 57.2236 41.7831 57.7335 41.4229C58.2774 41.039 59.0544 40.8149 59.8719 40.9125C61.2419 41.0755 62.4032 42.2484 62.5469 43.6637C62.8301 46.4427 59.7016 47.1986 59.5079 48.884C59.3514 50.2542 60.9651 51.6191 62.5246 50.1802C64.2213 48.6149 66.9644 49.5498 67.5275 51.7102C68.0267 53.6229 66.793 54.6897 66.0458 55.4445L49.8192 71.7778C48.213 73.401 46.5535 75.3727 43.4527 76.2348C40.2455 77.1268 37.0703 76.3977 34.7412 74.8635C33.5874 74.1033 32.7433 73.1738 31.8864 72.3053L21.1003 61.4325C20.3679 60.6992 20.1752 60.667 19.923 59.9015L13.8322 41.5097C13.6001 40.8053 13.3968 40.1631 13.1573 39.4715C12.8316 38.5302 12.8444 38.2675 12.2302 37.6896L9.53177 34.9727C8.60569 34.041 7.76797 33.1844 6.84083 32.2484L4.13179 29.5112L4.13286 29.509ZM66.5312 18.8936C67.5488 17.8675 68.7878 16.7493 69.1891 14.6285C69.964 10.5254 67.0091 7.21778 63.4155 6.88326C62.3532 6.78463 61.3441 6.97225 60.4404 7.32499C59.7251 7.60375 58.701 8.25884 58.3594 8.6609C57.7995 9.3235 57.2608 9.80168 56.6754 10.3957L41.2355 25.9484C41.1301 26.0545 27.8521 39.568 27.4497 39.7589L25.6104 36.5102C23.7029 33.313 22.0977 30.3131 19.1214 28.0305C17.3236 26.6517 15.0009 25.4498 12.4548 24.665C9.99055 23.9049 6.36928 23.2884 4.17969 24.7358C3.70282 25.051 3.22914 25.6096 2.86083 25.9806C2.42973 26.4126 2.05078 26.7986 1.61862 27.2318C0.788342 28.0638 -0.596513 29.0576 0.280597 30.4204C0.586096 30.8943 7.03669 37.2918 7.7371 37.9984L9.62118 39.8907C9.85111 40.1363 9.87133 40.3153 10.0055 40.7184L16.2389 59.537C16.4475 60.1545 16.6562 60.7914 16.8605 61.4132C17.1905 62.4179 17.2608 62.3407 17.843 62.9271C21.1854 66.2948 24.481 69.6013 27.817 72.9733C28.7973 73.9639 30.5494 75.8156 31.599 76.743C36.0771 80.7035 43.2324 81.1152 48.3907 77.6307C49.9055 76.6068 50.9635 75.3781 52.2845 74.0454C52.4314 73.8964 53.2691 73.1352 53.2957 72.9625L53.2915 72.8435C53.762 72.672 53.8876 72.4307 54.1665 72.1509L65.7733 60.4601C66.9101 59.314 69.5542 56.9037 70.2695 55.5507C71.8428 52.5776 70.8028 48.6342 67.8415 46.9595C66.7558 46.3462 66.0522 46.4041 65.5476 46.1714C65.735 44.9063 66.0468 44.441 65.8116 42.9249C65.5412 41.1913 64.5023 39.4737 63.0653 38.6159C62.235 38.1206 61.5634 37.9051 60.4883 37.6982C60.4776 37.4623 60.715 36.6925 60.7672 36.3119C60.8363 35.8047 60.8395 35.2612 60.7863 34.739C60.6873 33.7751 60.401 32.9742 59.9816 32.213C59.3855 31.1301 58.4488 30.2703 57.3566 29.7781C57.1491 29.6849 56.9777 29.6034 56.7531 29.5262C56.5849 29.4694 56.3465 29.4168 56.2049 29.2957L66.5344 18.8947L66.5312 18.8936Z" fill="#02345D"/>
<path fill-rule="evenodd" clip-rule="evenodd" d="M29.6005 0.0902398C28.1136 0.513764 28.2504 1.64997 28.2504 3.1194L28.2492 11.6522C28.2492 12.9035 29.1337 14.0601 30.7394 13.6183C32.1796 13.2227 32.062 12.0306 32.062 10.5751L32.0632 2.0434C32.0668 0.477216 30.8702 -0.273088 29.5993 0.0902398H29.6005Z" fill="#02345D"/>
<path fill-rule="evenodd" clip-rule="evenodd" d="M14.406 5.36789C13.1526 5.61471 12.3048 7.05002 13.6966 8.33598C14.6104 9.18119 15.4661 9.97662 16.3787 10.8249C17.2779 11.6608 18.1258 12.4438 19.0239 13.2797C20.0672 14.2504 21.0011 15.472 22.2857 15.1993C23.405 14.9628 24.4025 13.6022 22.9191 12.2219L17.5918 7.27713C16.5161 6.28362 15.6582 5.12003 14.4049 5.36685L14.406 5.36789Z" fill="#02345D"/>
<path fill-rule="evenodd" clip-rule="evenodd" d="M45.3065 5.38589C44.5908 5.57661 44.3018 6.05236 43.9102 6.44416L38.3486 12.0092C38.1912 12.1667 37.8525 12.4549 37.724 12.628C36.8373 13.822 37.9467 15.5582 39.4529 15.1871C40.0651 15.0368 40.4815 14.4688 40.8171 14.134L45.7561 9.19194C46.127 8.82294 46.6573 8.36584 46.9981 7.9471C47.9335 6.79243 46.7609 5.00031 45.3055 5.38693L45.3065 5.38589Z" fill="#02345D"/>
</svg>

<svg xmlns="http://www.w3.org/2000/svg" width="71" height="80" fill="none" viewBox="0 0 71 80"><path fill="#02345D" fill-rule="evenodd" d="M4.133 29.509c.187-.348 1.038-1.11 1.368-1.443.514-.519.862-.737 1.926-.78 3.144-.134 7.468 1.718 9.884 3.64l1.404 1.302c.352.364.874 1.112 1.186 1.594 1.792 2.765 3.55 5.487 5.077 8.471.281.548.65 1.314 1.055 1.654.546.459 1.45.451 2.005.026.44-.335 10.447-10.494 10.84-10.888C46.08 25.86 53.276 18.472 60.496 11.31c2.788-2.767 6.353.304 5.253 3.145-.374.966-1.877 2.27-2.51 2.909L51.066 29.628c-.426.428-.973.913-1.337 1.37-1.227 1.539.787 3.927 2.637 2.154 1.939-1.857 5.52-.203 5.1 2.787-.27 1.906-2.457 2.98-2.892 3.944-.152.336-.198.75-.084 1.153a1.67 1.67 0 0 0 1.455 1.232c.956.098 1.28-.485 1.79-.845.543-.384 1.32-.608 2.138-.51 1.37.163 2.531 1.335 2.675 2.75.283 2.78-2.845 3.536-3.04 5.221-.156 1.37 1.458 2.735 3.018 1.296 1.696-1.565 4.44-.63 5.003 1.53.499 1.913-.735 2.98-1.482 3.734L49.819 71.779c-1.606 1.623-3.266 3.595-6.366 4.457-3.208.892-6.383.163-8.712-1.371-1.154-.76-1.998-1.69-2.855-2.559L21.1 61.432c-.732-.733-.925-.765-1.177-1.53l-6.09-18.392c-.233-.705-.436-1.347-.676-2.038-.325-.942-.313-1.205-.927-1.782l-2.698-2.717c-.926-.932-1.764-1.789-2.691-2.725l-2.71-2.737zM66.53 18.894c1.018-1.026 2.257-2.145 2.658-4.265.775-4.104-2.18-7.411-5.773-7.746a6.5 6.5 0 0 0-2.976.442c-.715.279-1.739.934-2.08 1.336-.56.662-1.1 1.14-1.685 1.735l-15.44 15.552c-.105.107-13.383 13.62-13.785 13.81l-1.84-3.248c-1.907-3.197-3.512-6.197-6.489-8.48-1.797-1.378-4.12-2.58-6.666-3.365-2.464-.76-6.086-1.377-8.275.07-.477.316-.95.875-1.32 1.246-.43.432-.81.818-1.241 1.25-.83.833-2.216 1.827-1.338 3.19.305.473 6.756 6.87 7.456 7.577l1.884 1.893c.23.245.25.424.384.827l6.234 18.819c.209.617.417 1.254.621 1.876.33 1.005.4.928.983 1.514 3.342 3.368 6.638 6.674 9.974 10.046.98.99 2.732 2.843 3.782 3.77 4.478 3.96 11.633 4.372 16.792.888 1.515-1.024 2.573-2.253 3.894-3.586.146-.149.984-.91 1.01-1.082l-.004-.12c.471-.171.597-.412.876-.692l11.606-11.69c1.137-1.147 3.781-3.557 4.496-4.91 1.574-2.973.534-6.917-2.428-8.592-1.085-.613-1.789-.555-2.293-.788.187-1.265.499-1.73.264-3.246-.27-1.734-1.31-3.451-2.747-4.31-.83-.494-1.502-.71-2.577-.917-.01-.236.227-1.005.28-1.386.068-.507.072-1.05.018-1.573a6.45 6.45 0 0 0-.804-2.526 5.7 5.7 0 0 0-2.625-2.435c-.208-.093-.38-.175-.604-.252-.168-.057-.407-.11-.548-.23l10.33-10.401zM29.6.09c-1.486.424-1.35 1.56-1.35 3.03v8.532c0 1.252.884 2.408 2.49 1.966 1.44-.395 1.322-1.587 1.322-3.043l.001-8.532C32.067.477 30.87-.273 29.6.09M14.406 5.368c-1.253.247-2.101 1.682-.71 2.968.914.845 1.77 1.64 2.683 2.489.899.836 1.747 1.619 2.645 2.455 1.043.97 1.977 2.192 3.262 1.92 1.119-.237 2.116-1.598.633-2.978l-5.327-4.945c-1.076-.993-1.934-2.157-3.187-1.91z" clip-rule="evenodd"/><path fill="#02345D" fill-rule="evenodd" d="M45.307 5.386c-.716.19-1.005.666-1.397 1.058l-5.56 5.566c-.158.158-.496.446-.625.619-.887 1.194.223 2.93 1.729 2.56.612-.151 1.028-.72 1.364-1.054l4.94-4.942c.37-.37.9-.826 1.241-1.245.936-1.155-.237-2.947-1.692-2.56z" clip-rule="evenodd"/></svg>
